public/assets/icons/Logo.svg

<svg width="119" height="31" viewBox="0 0 119 31" fill="none" xmlns="http://www.w3.org/2000/svg">
<path d="M11.008 4.092C12.672 4.092 14.1653 4.412 15.488 5.052C16.8107 5.67067 17.9307 6.492 18.848 7.516C19.7867 8.51867 20.5013 9.66 20.992 10.94C21.504 12.22 21.76 13.5213 21.76 14.844C21.76 15.804 21.664 16.6893 21.472 17.5C21.28 18.3107 21.0133 19.0573 20.672 19.74C20.3307 20.4227 19.936 21.052 19.488 21.628C19.0613 22.1827 18.592 22.6947 18.08 23.164L19.136 24.348C19.968 25.116 20.8747 25.7987 21.856 26.396C22.8373 27.0147 23.8293 27.5267 24.832 27.932C25.8347 28.3587 26.8267 28.6787 27.808 28.892C28.7893 29.1053 29.6853 29.212 30.496 29.212C31.2 29.212 31.9467 29.148 32.736 29.02C33.5467 28.892 34.3573 28.7 35.168 28.444C36 28.188 36.8213 27.8467 37.632 27.42C38.4427 27.0147 39.2107 26.524 39.936 25.948L40.128 26.236C39.424 27.004 38.6347 27.676 37.76 28.252C36.8853 28.8493 35.968 29.34 35.008 29.724C34.048 30.108 33.056 30.396 32.032 30.588C31.0293 30.8013 30.0373 30.908 29.056 30.908C28.0747 30.908 27.0933 30.8227 26.112 30.652C25.1307 30.4813 24.1493 30.1933 23.168 29.788C22.1867 29.3827 21.2053 28.828 20.224 28.124C19.2427 27.4413 18.2613 26.5773 17.28 25.532L16.192 24.38C15.8293 24.6147 15.4133 24.828 14.944 25.02C14.496 25.1907 14.016 25.34 13.504 25.468C12.992 25.596 12.4693 25.692 11.936 25.756C11.4027 25.82 10.9013 25.852 10.432 25.852C8.93867 25.852 7.552 25.5533 6.272 24.956C5.01333 24.3373 3.91467 23.5373 2.976 22.556C2.05867 21.5533 1.33333 20.412 0.8 19.132C0.266667 17.852 0 16.54 0 15.196C0 13.8307 0.245333 12.4867 0.736 11.164C1.22667 9.82 1.94133 8.62534 2.88 7.58C3.84 6.53467 5.00267 5.692 6.368 5.052C7.73333 4.412 9.28 4.092 11.008 4.092ZM10.976 24.732C12.4053 24.668 13.664 24.348 14.752 23.772C15.84 23.1747 16.736 22.428 17.44 21.532C18.1653 20.6147 18.7093 19.612 19.072 18.524C19.4347 17.436 19.616 16.3693 19.616 15.324C19.616 14.1507 19.392 12.9667 18.944 11.772C18.5173 10.556 17.9093 9.468 17.12 8.508C16.352 7.52667 15.4133 6.73734 14.304 6.14C13.1947 5.52134 11.968 5.212 10.624 5.212C9.30133 5.212 8.10667 5.51067 7.04 6.108C5.99467 6.684 5.10933 7.43067 4.384 8.348C3.65867 9.26534 3.104 10.2893 2.72 11.42C2.336 12.5293 2.144 13.628 2.144 14.716C2.144 15.8893 2.35733 17.0733 2.784 18.268C3.232 19.4627 3.85067 20.54 4.64 21.5C5.42933 22.46 6.35733 23.2387 7.424 23.836C8.512 24.4333 9.696 24.732 10.976 24.732Z" fill="#EFE7D2"/>
<path d="M24.9755 4.412H29.5515V4.732H29.3915C29.2422 4.732 29.1035 4.796 28.9755 4.924C28.8475 5.03067 28.7408 5.16934 28.6555 5.34C28.5702 5.48934 28.4955 5.67067 28.4315 5.884C28.3888 6.076 28.3675 6.24667 28.3675 6.396V23.452C28.3675 23.6227 28.3888 23.8147 28.4315 24.028C28.4742 24.22 28.5382 24.4013 28.6235 24.572C28.7302 24.7427 28.8368 24.892 28.9435 25.02C29.0715 25.148 29.2208 25.212 29.3915 25.212H29.5515V25.532H24.9755V25.212H25.1355C25.3062 25.212 25.4555 25.1587 25.5835 25.052C25.7115 24.924 25.8182 24.7747 25.9035 24.604C26.0102 24.412 26.0848 24.22 26.1275 24.028C26.1702 23.8147 26.1915 23.6227 26.1915 23.452V6.396C26.1915 6.24667 26.1702 6.076 26.1275 5.884C26.0848 5.692 26.0102 5.51067 25.9035 5.34C25.8182 5.16934 25.7115 5.03067 25.5835 4.924C25.4555 4.796 25.3062 4.732 25.1355 4.732H24.9755V4.412Z" fill="#EFE7D2"/>
<path d="M40.7248 25.212H40.8848V25.532H36.3408V25.212H36.5008C36.6714 25.212 36.8208 25.148 36.9488 25.02C37.0768 24.892 37.1834 24.7427 37.2688 24.572C37.3754 24.4013 37.4501 24.22 37.4928 24.028C37.5354 23.8147 37.5568 23.6227 37.5568 23.452V5.596H33.8447C33.5034 5.596 33.2048 5.67067 32.9487 5.82C32.6927 5.96934 32.4794 6.16134 32.3088 6.396C32.1381 6.60934 32.0101 6.85467 31.9247 7.132C31.8394 7.388 31.7968 7.644 31.7968 7.9H31.4767V4.412H45.8448V7.9H45.5247C45.5247 7.644 45.4821 7.388 45.3968 7.132C45.3114 6.85467 45.1834 6.60934 45.0128 6.396C44.8421 6.16134 44.6288 5.96934 44.3728 5.82C44.1168 5.67067 43.8181 5.596 43.4768 5.596H39.7008V23.452C39.7008 23.6227 39.7221 23.8147 39.7648 24.028C39.8074 24.22 39.8714 24.4013 39.9568 24.572C40.0634 24.7427 40.1701 24.892 40.2768 25.02C40.4048 25.148 40.5541 25.212 40.7248 25.212Z" fill="#EFE7D2"/>
<path d="M57.1115 5.244C55.5328 5.244 54.1568 5.532 52.9835 6.108C51.8315 6.66267 50.8715 7.39867 50.1035 8.316C49.3355 9.212 48.7595 10.2253 48.3755 11.356C48.0128 12.4867 47.8315 13.6067 47.8315 14.716C47.8315 15.9747 48.0768 17.212 48.5675 18.428C49.0582 19.6227 49.7302 20.6893 50.5835 21.628C51.4582 22.5453 52.4715 23.292 53.6235 23.868C54.7755 24.4227 56.0235 24.7 57.3675 24.7C57.7515 24.7 58.1995 24.6573 58.7115 24.572C59.2448 24.4867 59.7675 24.3267 60.2795 24.092C60.7915 23.836 61.2608 23.484 61.6875 23.036C62.1355 22.588 62.4768 22.0013 62.7115 21.276H63.0315V24.828C62.7115 24.828 62.3702 24.8707 62.0075 24.956C61.6662 25.0413 61.2822 25.1373 60.8555 25.244C60.3008 25.3933 59.6822 25.532 58.9995 25.66C58.3382 25.788 57.6342 25.852 56.8875 25.852C55.0315 25.852 53.3995 25.532 51.9915 24.892C50.5835 24.252 49.4102 23.42 48.4715 22.396C47.5328 21.372 46.8288 20.22 46.3595 18.94C45.8902 17.6387 45.6555 16.3267 45.6555 15.004C45.6555 13.6813 45.8902 12.3693 46.3595 11.068C46.8288 9.76667 47.5435 8.604 48.5035 7.58C49.4635 6.53467 50.6688 5.692 52.1195 5.052C53.5702 4.412 55.2768 4.092 57.2395 4.092C57.9435 4.092 58.5728 4.156 59.1275 4.284C59.7035 4.412 60.2155 4.54 60.6635 4.668C60.9835 4.77467 61.2715 4.86 61.5275 4.924C61.8048 4.96667 62.0715 4.988 62.3275 4.988V8.54H62.0075C61.8795 7.87867 61.6448 7.33467 61.3035 6.908C60.9622 6.46 60.5568 6.11867 60.0875 5.884C59.6395 5.64934 59.1488 5.48934 58.6155 5.404C58.1035 5.29734 57.6022 5.244 57.1115 5.244Z" fill="#EFE7D2"/>
<path d="M78.553 25.212H78.713C78.8623 25.212 79.001 25.1587 79.129 25.052C79.257 24.924 79.3637 24.7747 79.449 24.604C79.5557 24.412 79.6303 24.22 79.673 24.028C79.7157 23.8147 79.737 23.6227 79.737 23.452V14.748H69.497V23.452C69.497 23.6227 69.5183 23.8147 69.561 24.028C69.6037 24.22 69.6677 24.4013 69.753 24.572C69.8383 24.7427 69.9343 24.892 70.041 25.02C70.169 25.148 70.3183 25.212 70.489 25.212H70.649V25.532H66.169V25.212H66.329C66.4783 25.212 66.617 25.1587 66.745 25.052C66.873 24.924 66.9797 24.7747 67.065 24.604C67.1717 24.412 67.2463 24.22 67.289 24.028C67.3317 23.8147 67.353 23.6227 67.353 23.452V6.396C67.353 6.24667 67.3317 6.076 67.289 5.884C67.2463 5.692 67.1823 5.51067 67.097 5.34C67.0117 5.16934 66.905 5.03067 66.777 4.924C66.649 4.796 66.4997 4.732 66.329 4.732H66.169V4.412H70.649V4.732H70.489C70.3183 4.732 70.169 4.796 70.041 4.924C69.913 5.03067 69.8063 5.16934 69.721 5.34C69.657 5.51067 69.6037 5.692 69.561 5.884C69.5183 6.076 69.497 6.24667 69.497 6.396V13.628H79.737V6.396C79.737 6.24667 79.7157 6.076 79.673 5.884C79.6303 5.692 79.5663 5.51067 79.481 5.34C79.3957 5.16934 79.289 5.03067 79.161 4.924C79.033 4.796 78.8837 4.732 78.713 4.732H78.553V4.412H83.033V4.732H82.873C82.7023 4.732 82.553 4.796 82.425 4.924C82.297 5.03067 82.1903 5.16934 82.105 5.34C82.041 5.51067 81.9877 5.692 81.945 5.884C81.9023 6.076 81.881 6.24667 81.881 6.396V23.452C81.881 23.6227 81.9023 23.8147 81.945 24.028C82.009 24.22 82.0837 24.4013 82.169 24.572C82.2543 24.7427 82.3503 24.892 82.457 25.02C82.585 25.148 82.7237 25.212 82.873 25.212H83.033V25.532H78.553V25.212Z" fill="#EFE7D2"/>
<path d="M85.6913 25.212H85.8512C86.0219 25.212 86.1712 25.1587 86.2992 25.052C86.4272 24.924 86.5339 24.7747 86.6192 24.604C86.7259 24.4333 86.8006 24.252 86.8433 24.06C86.9073 23.868 86.9393 23.6867 86.9393 23.516V6.396C86.9393 6.24667 86.9073 6.076 86.8433 5.884C86.8006 5.692 86.7259 5.51067 86.6192 5.34C86.5339 5.16934 86.4272 5.03067 86.2992 4.924C86.1712 4.796 86.0219 4.732 85.8512 4.732H85.6913V4.412H98.0113V7.388H97.6913C97.6486 6.89734 97.4566 6.47067 97.1152 6.108C96.7739 5.724 96.2406 5.532 95.5153 5.532H89.0833V13.628H94.3952C94.8859 13.628 95.2913 13.4787 95.6113 13.18C95.9526 12.8813 96.1233 12.5293 96.1233 12.124H96.4433V16.124H96.1233C96.1233 15.74 95.9632 15.4093 95.6432 15.132C95.3232 14.8547 94.9072 14.716 94.3952 14.716H89.0833V24.412H96.0912C96.4966 24.412 96.8486 24.316 97.1473 24.124C97.4459 23.932 97.6913 23.708 97.8833 23.452C98.0966 23.1747 98.2459 22.8867 98.3313 22.588C98.4379 22.268 98.4912 22.0013 98.4912 21.788H98.8112V25.532H85.6913V25.212Z" fill="#EFE7D2"/>
<path d="M104.583 25.212H104.743V25.532H101.19V25.212H101.351C101.5 25.212 101.639 25.148 101.767 25.02C101.916 24.892 102.033 24.7427 102.118 24.572C102.204 24.4013 102.268 24.22 102.311 24.028C102.375 23.8147 102.407 23.6227 102.407 23.452V6.396C102.407 6.24667 102.385 6.076 102.342 5.884C102.321 5.692 102.268 5.51067 102.183 5.34C102.097 5.16934 101.98 5.03067 101.83 4.924C101.681 4.796 101.5 4.732 101.286 4.732H101.127V4.412H104.359L115.975 22.716V6.396C115.975 6.24667 115.943 6.076 115.879 5.884C115.836 5.692 115.761 5.51067 115.655 5.34C115.569 5.16934 115.463 5.03067 115.335 4.924C115.207 4.796 115.057 4.732 114.887 4.732H114.727V4.412H118.311V4.732H118.15C117.98 4.732 117.83 4.796 117.702 4.924C117.575 5.03067 117.457 5.16934 117.351 5.34C117.265 5.51067 117.201 5.692 117.159 5.884C117.116 6.076 117.094 6.24667 117.094 6.396V25.532H115.111L103.527 7.164V23.452C103.527 23.6227 103.548 23.8147 103.59 24.028C103.633 24.22 103.697 24.4013 103.783 24.572C103.889 24.7427 104.007 24.892 104.134 25.02C104.262 25.148 104.412 25.212 104.583 25.212Z" fill="#EFE7D2"/>
</svg>

<svg xmlns="http://www.w3.org/2000/svg" width="119" height="31" fill="none"><path fill="#EFE7D2" d="M11.008 4.092c1.664 0 3.157.32 4.48.96 1.323.619 2.443 1.44 3.36 2.464a10.424 10.424 0 0 1 2.144 3.424 10.43 10.43 0 0 1 .768 3.904c0 .96-.096 1.845-.288 2.656-.192.81-.459 1.557-.8 2.24a11.281 11.281 0 0 1-1.184 1.888 12.024 12.024 0 0 1-1.408 1.536l1.056 1.184c.832.768 1.739 1.45 2.72 2.048.981.619 1.973 1.13 2.976 1.536 1.003.427 1.995.747 2.976.96.981.213 1.877.32 2.688.32.704 0 1.45-.064 2.24-.192.81-.128 1.621-.32 2.432-.576a14.343 14.343 0 0 0 2.464-1.024c.81-.405 1.579-.896 2.304-1.472l.192.288a12.6 12.6 0 0 1-2.368 2.016 14.263 14.263 0 0 1-2.752 1.472c-.96.384-1.952.672-2.976.864-1.003.213-1.995.32-2.976.32-.981 0-1.963-.085-2.944-.256a13.978 13.978 0 0 1-2.944-.864 14.693 14.693 0 0 1-2.944-1.664c-.981-.683-1.963-1.547-2.944-2.592l-1.088-1.152a7.572 7.572 0 0 1-1.248.64c-.448.17-.928.32-1.44.448-.512.128-1.035.224-1.568.288-.533.064-1.035.096-1.504.096-1.493 0-2.88-.299-4.16-.896a11.598 11.598 0 0 1-3.296-2.4A11.691 11.691 0 0 1 .8 19.132c-.533-1.28-.8-2.592-.8-3.936 0-1.365.245-2.71.736-4.032A10.912 10.912 0 0 1 2.88 7.58c.96-1.045 2.123-1.888 3.488-2.528 1.365-.64 2.912-.96 4.64-.96Zm-.032 20.64c1.43-.064 2.688-.384 3.776-.96 1.088-.597 1.984-1.344 2.688-2.24a9.831 9.831 0 0 0 1.632-3.008c.363-1.088.544-2.155.544-3.2 0-1.173-.224-2.357-.672-3.552a10.64 10.64 0 0 0-1.824-3.264 8.883 8.883 0 0 0-2.816-2.368c-1.11-.619-2.336-.928-3.68-.928-1.323 0-2.517.299-3.584.896a8.7 8.7 0 0 0-2.656 2.24A10.203 10.203 0 0 0 2.72 11.42a10.029 10.029 0 0 0-.576 3.296c0 1.173.213 2.357.64 3.552A11.291 11.291 0 0 0 4.64 21.5a9.738 9.738 0 0 0 2.784 2.336 7.261 7.261 0 0 0 3.552.896Z"/><path fill="#EFE7D2" d="M24.976 4.412h4.576v.32h-.16a.581.581 0 0 0-.416.192 1.272 1.272 0 0 0-.32.416c-.086.15-.16.33-.224.544a2.39 2.39 0 0 0-.064.512v17.056c0 .17.02.363.064.576.042.192.106.373.192.544.106.17.213.32.32.448a.614.614 0 0 0 .448.192h.16v.32h-4.576v-.32h.16c.17 0 .32-.053.448-.16.128-.128.234-.277.32-.448.106-.192.18-.384.224-.576.042-.213.064-.405.064-.576V6.396c0-.15-.022-.32-.064-.512a1.727 1.727 0 0 0-.224-.544 1.272 1.272 0 0 0-.32-.416.614.614 0 0 0-.448-.192h-.16v-.32ZM40.725 25.212h.16v.32H36.34v-.32h.16c.17 0 .32-.064.448-.192a1.71 1.71 0 0 0 .32-.448 1.73 1.73 0 0 0 .224-.544 2.97 2.97 0 0 0 .064-.576V5.596h-3.712c-.342 0-.64.075-.896.224-.256.15-.47.341-.64.576-.17.213-.299.459-.384.736a2.417 2.417 0 0 0-.128.768h-.32V4.412h14.368V7.9h-.32c0-.256-.043-.512-.128-.768a2.204 2.204 0 0 0-.384-.736 2.074 2.074 0 0 0-.64-.576 1.746 1.746 0 0 0-.896-.224H39.7v17.856c0 .17.021.363.064.576.042.192.106.373.192.544.106.17.213.32.32.448a.614.614 0 0 0 .448.192ZM57.111 5.244c-1.578 0-2.954.288-4.127.864-1.153.555-2.113 1.29-2.88 2.208a9.145 9.145 0 0 0-1.728 3.04 10.953 10.953 0 0 0-.544 3.36 9.84 9.84 0 0 0 .736 3.712 10.84 10.84 0 0 0 2.016 3.2 10.903 10.903 0 0 0 3.04 2.24c1.151.555 2.4.832 3.743.832.385 0 .833-.043 1.345-.128a6.04 6.04 0 0 0 1.567-.48 5.079 5.079 0 0 0 1.408-1.056c.449-.448.79-1.035 1.025-1.76h.32v3.552c-.32 0-.662.043-1.024.128l-1.153.288c-.554.15-1.173.288-1.855.416-.662.128-1.366.192-2.112.192-1.856 0-3.488-.32-4.896-.96-1.408-.64-2.582-1.472-3.52-2.496a10.34 10.34 0 0 1-2.113-3.456 11.528 11.528 0 0 1-.703-3.936c0-1.323.234-2.635.703-3.936a10.025 10.025 0 0 1 2.145-3.488c.96-1.045 2.165-1.888 3.616-2.528 1.45-.64 3.157-.96 5.12-.96a8.43 8.43 0 0 1 1.887.192c.576.128 1.088.256 1.536.384.32.107.609.192.865.256.277.043.544.064.8.064V8.54h-.32c-.129-.661-.363-1.205-.705-1.632a3.475 3.475 0 0 0-1.215-1.024 4.775 4.775 0 0 0-1.473-.48 7.363 7.363 0 0 0-1.504-.16ZM78.553 25.212h.16c.15 0 .288-.053.416-.16.128-.128.235-.277.32-.448.107-.192.181-.384.224-.576.043-.213.064-.405.064-.576v-8.704h-10.24v8.704c0 .17.021.363.064.576a2.356 2.356 0 0 0 .48.992.614.614 0 0 0 .448.192h.16v.32h-4.48v-.32h.16c.15 0 .288-.053.416-.16.128-.128.235-.277.32-.448.107-.192.181-.384.224-.576.043-.213.064-.405.064-.576V6.396c0-.15-.021-.32-.064-.512a2.356 2.356 0 0 0-.192-.544 1.272 1.272 0 0 0-.32-.416.614.614 0 0 0-.448-.192h-.16v-.32h4.48v.32h-.16c-.17 0-.32.064-.448.192a1.272 1.272 0 0 0-.32.416c-.064.17-.117.352-.16.544a2.39 2.39 0 0 0-.064.512v7.232h10.24V6.396c0-.15-.021-.32-.064-.512a2.356 2.356 0 0 0-.192-.544 1.272 1.272 0 0 0-.32-.416.614.614 0 0 0-.448-.192h-.16v-.32h4.48v.32h-.16c-.17 0-.32.064-.448.192a1.272 1.272 0 0 0-.32.416c-.064.17-.117.352-.16.544a2.39 2.39 0 0 0-.064.512v17.056c0 .17.021.363.064.576.064.192.139.373.224.544.085.17.181.32.288.448a.581.581 0 0 0 .416.192h.16v.32h-4.48v-.32ZM85.691 25.212h.16c.17 0 .32-.053.448-.16.128-.128.235-.277.32-.448.107-.17.182-.352.224-.544.064-.192.096-.373.096-.544V6.396c0-.15-.032-.32-.096-.512a1.727 1.727 0 0 0-.224-.544 1.272 1.272 0 0 0-.32-.416.614.614 0 0 0-.448-.192h-.16v-.32h12.32v2.976h-.32a2.082 2.082 0 0 0-.576-1.28c-.341-.384-.874-.576-1.6-.576h-6.432v8.096h5.312c.49 0 .896-.15 1.216-.448.342-.299.512-.65.512-1.056h.32v4h-.32c0-.384-.16-.715-.48-.992-.32-.277-.736-.416-1.248-.416h-5.312v9.696h7.008a1.91 1.91 0 0 0 1.056-.288 2.8 2.8 0 0 0 .736-.672 2.58 2.58 0 0 0 .448-.864c.107-.32.16-.587.16-.8h.32v3.744h-13.12v-.32ZM104.583 25.212h.16v.32h-3.553v-.32h.161a.581.581 0 0 0 .416-.192c.149-.128.266-.277.351-.448.086-.17.15-.352.193-.544.064-.213.096-.405.096-.576V6.396c0-.15-.022-.32-.065-.512a1.6 1.6 0 0 0-.159-.544 1.117 1.117 0 0 0-.353-.416.806.806 0 0 0-.544-.192h-.159v-.32h3.232l11.616 18.304V6.396c0-.15-.032-.32-.096-.512a1.75 1.75 0 0 0-.224-.544 1.282 1.282 0 0 0-.32-.416.615.615 0 0 0-.448-.192h-.16v-.32h3.584v.32h-.161c-.17 0-.32.064-.448.192a1.73 1.73 0 0 0-.351.416c-.086.17-.15.352-.192.544a2.377 2.377 0 0 0-.065.512v19.136h-1.983L103.527 7.164v16.288c0 .17.021.363.063.576.043.192.107.373.193.544.106.17.224.32.351.448a.616.616 0 0 0 .449.192Z"/></svg>
